**kern	**silbe	**kern	**silbe
*ICvox	*	*ICvox	*
*C:	*	*C:	*
*M4/4	*	*M4/4	*
*clefG2	*	*clefG2	*
r;	.	r;	.
=1	=1	=1	=1
*M2/4	*	*M2/4	*
2r	.	2r	.
=2	=2	=2	=2
*M4/4	*	*M4/4	*
1r	.	1r	.
=3	=3	=3	=3
*M2/4	*	*M2/4	*
2r	.	2r	.
=4	=4	=4	=4
*M4/4	*	*M4/4	*
1r	.	1r	.
=5	=5	=5	=5
*M2/4	*	*M2/4	*
2r	.	2r	.
=6	=6	=6	=6
*M4/4	*	*M4/4	*
1r	.	1r	.
=7	=7	=7	=7
*M2/4	*	*M2/4	*
2r	.	2r	.
=8	=8	=8	=8
*M4/4	*	*M4/4	*
1r	.	1r	.
=9	=9	=9	=9
1r	.	1r	.
=10	=10	=10	=10
1r	.	1r	.
=11	=11	=11	=11
8.r	.	1r	.
16G	I	.	.
8c	do	.	.
16d	be-	.	.
16[e	-lieve	.	.
16e]	_	.	.
8d	in	.	.
16c	you	.	.
8G	_	.	.
8r	.	.	.
=12	=12	=12	=12
16e-	and	1r	.
8f	I	.	.
8fq	_	.	.
16[g	know	.	.
16g]	_	.	.
16f	you	.	.
16e-	be-	.	.
8fq	_	.	.
16[g	-lieve	.	.
16g]	_	.	.
16f	_	.	.
16f	in	.	.
8cq	_	.	.
16[d	me	.	.
16d]	_	.	.
16c	_	.	.
16B-	_	.	.
16r	.	.	.
=13	=13	=13	=13
8fq	_	.	.
8g	oh,	1r	.
4f	_	.	.
8cq	_	.	.
8d	yeah	.	.
4c	_	.	.
4r	.	.	.
=14	=14	=14	=14
8fq	_	.	.
8g	Oh,	1r	.
4f	_	.	.
8cq	_	.	.
8d	yeah	.	.
4c	_	.	.
4r	.	.	.
=15	=15	=15	=15
8.r	.	1r	.
16G	But	.	.
8c	now	.	.
8d	we	.	.
16e	rea	.	.
8d	_	.	.
16c	lize	.	.
8G	_	.	.
8r	.	.	.
=16	=16	=16	=16
8e-	love's	1r	.
16f	not	.	.
8fq	_	.	.
16[g	all	.	.
16g]	_	.	.
16f	that	.	.
16e-	it's	.	.
8fq	_	.	.
16[g	s'posed	.	.
16g]	_	.	.
16f	_	.	.
16f	to	.	.
8cq	_	.	.
16[d	be	.	.
16d]	_	.	.
16c	_	.	.
16B-	_	.	.
16r	.	.	.
=17	=17	=17	=17
8fq	_	.	.
8g	oh,	1r	.
4f	_	.	.
8cq	_	.	.
8d	yeah	.	.
4c	_	.	.
4r	.	.	.
=18	=18	=18	=18
8fq	_	.	.
8g	Oh,	1r	.
4f	_	.	.
8cq	_	.	.
8d	yeah	.	.
4c	_	.	.
4r	.	.	.
=19	=19	=19	=19
8.r	.	1r	.
16A	And	.	.
8a	kno-	.	.
16b-	-wing	.	.
16[a	that	.	.
16a]	_	.	.
16fQ	_	.	.
8.g	you	.	.
8f	would	.	.
8e	have	.	.
=20	=20	=20	=20
8f	wan-	1r	.
16g	-ted	.	.
16[f	it	.	.
16f]	_	.	.
8e	this	.	.
16[d	way	.	.
4d]	_	.	.
4r	.	.	.
=21	=21	=21	=21
8.r	.	1r	.
16A	I	.	.
8a	do	.	.
16b-	be-	.	.
16[a	-lieve	.	.
16a]	_	.	.
32f	I'm	.	.
32g	_	.	.
8g	_	.	.
16f	fee-	.	.
8.e	-ling	.	.
=22	=22	=22	=22
*M2/4	*	*M2/4	*
8f	stron-	2r	.
16g	-ger	.	.
16f	ev-	.	.
16e	-'ry-	.	.
32d	-day	.	.
32e	_	.	.
8[d	_	.	.
=23	=23	=23	=23
*M4/4	*	*M4/4	*
4.d]	_	1r	.
8r	.	.	.
2r	.	.	.
=24	=24	=24	=24
8.r	.	1r	.
16G	I	.	.
8Aq	_	.	.
8c	know	.	.
8d	we	.	.
16e	real-	.	.
8d	-ly	.	.
16c	tried	.	.
8G	_	.	.
16r	.	.	.
16G	to-	.	.
=25	=25	=25	=25
8dq	_	.	.
16e-	-ge-	2g 2b- 2ee-	_
8f	-ther	.	.
8fq	_	.	.
16[g	we	.	.
16g]	_	.	.
16f	had	.	.
16e-	_	.	.
8fq	_	.	.
16[g	love	.	.
16g]	_	2f 2b- 2dd	_
16f	_	.	.
16f	in-	.	.
8cq	_	.	.
16[d	-side	.	.
16d]	_	.	.
16c	_	.	.
16B-	_	.	.
16r	.	.	.
=26	=26	=26	=26
8fq	_	.	.
8g	oh,	1r	.
4f	_	.	.
8cq	_	.	.
8d	yeah	.	.
4c	_	.	.
4r	.	.	.
=27	=27	=27	=27
8fq	_	.	.
8g	Oh,	1r	.
4f	_	.	.
8cq	_	.	.
8d	yeah	.	.
4c	_	.	.
4r	.	.	.
=28	=28	=28	=28
8.r	.	1r	.
16G	So	.	.
8c	now	.	.
16d	the	.	.
16dQ	_	.	.
16[e	time	.	.
16e]	_	.	.
8d	has	.	.
16c	come	.	.
8G	_	.	.
16r	.	.	.
16G	for	.	.
=29	=29	=29	=29
16dQ	_	.	.
8e-	both	2g 2b- 2ee-	_
16f	of	.	.
8fq	_	.	.
16[g	us	.	.
16g]	_	.	.
16f	to	.	.
16e-	live	.	.
8fq	_	.	.
16[g	on	.	.
16g]	_	2f 2b- 2dd	_
16f	_	.	.
16f	the	.	.
8cq	_	.	.
16[d	run	.	.
16d]	_	.	.
16c	_	.	.
16B-	_	.	.
16r	.	.	.
=30	=30	=30	=30
8fq	_	.	.
8g	oh,	1r	.
4f	_	.	.
8cq	_	.	.
8d	yeah	.	.
4c	_	.	.
4r	.	.	.
=31	=31	=31	=31
8fq	_	.	.
8g	Oh,	1r	.
4f	_	.	.
8cq	_	.	.
8d	yeah	.	.
4c	_	.	.
4r	.	.	.
=32	=32	=32	=32
8.r	.	1r	.
16A	And	.	.
8a	kno-	.	.
16b-	-wing	.	.
16[a	that	.	.
16a]	_	.	.
16fQ	_	.	.
8g	you	.	.
16[f	would	.	.
16f]	_	.	.
8.e	have	.	.
=33	=33	=33	=33
8f	wan-	1r	.
16g	-ted	.	.
16[f	it	.	.
16f]	_	.	.
8e	this	.	.
16[d	way	.	.
4d]	_	.	.
4r	.	.	.
=34	=34	=34	=34
8.r	.	1r	.
16A	I	.	.
8a	do	.	.
16b-	be-	.	.
16[a	-lieve	.	.
16a]	_	.	.
32f	I'm	.	.
32g	_	.	.
8g	_	.	.
16f	fee-	.	.
8.e	-ling	.	.
=35	=35	=35	=35
*M2/4	*	*M2/4	*
8f	stron-	2r	.
16g	-ger	.	.
16f	ev-	.	.
16e	-'ry-	.	.
32d	-day	.	.
32e	_	.	.
8[d	_	.	.
=36	=36	=36	=36
*M4/4	*	*M4/4	*
2d]	_	1r	.
2r	.	.	.
=37	=37	=37	=37
*M2/4	*	*M2/4	*
8.d	Yeah,	2r	.
16[e	yeah,	.	.
8e]	_	.	.
8eq	_	.	.
8[f	yeah	.	.
=38	=38	=38	=38
*M4/4	*	*M4/4	*
2f]	_	1r	.
2r	.	.	.
=39	=39	=39	=39
*M2/4	*	*M2/4	*
2r	.	2r	.
=40	=40	=40	=40
*M4/4	*	*M4/4	*
1r	.	1r	.
=41	=41	=41	=41
*M2/4	*	*M2/4	*
8.d	Yeah,	2r	.
16[e	yeah,	.	.
8e]	_	.	.
8eq	_	.	.
8[f	yeah	.	.
=42	=42	=42	=42
*M4/4	*	*M4/4	*
4f_	_	1r	.
16.f]	_	.	.
32e	_	.	.
32d	_	.	.
32c	_	.	.
16r	.	.	.
2r	.	.	.
=43	=43	=43	=43
8B-q	_	.	.
2.c	Hah	1r	.
4r	.	.	.
=44	=44	=44	=44
1r	.	1r	.
=45	=45	=45	=45
1r	.	1r	.
=46	=46	=46	=46
1r	.	1r	.
=47	=47	=47	=47
1r	.	1r	.
=48	=48	=48	=48
*A:	*	*A:	*
1r	.	1r	.
=49	=49	=49	=49
1r	.	1r	.
=50	=50	=50	=50
1r	.	1r	.
=51	=51	=51	=51
1r	.	1r	.
=52	=52	=52	=52
1r	.	1r	.
=53	=53	=53	=53
4A	Af-	1r	.
8c#	-ter	.	.
8e	what	.	.
8r	.	.	.
4a	you	.	.
16aQ	_	.	.
8b	meant	.	.
=54	=54	=54	=54
8r	.	1r	.
16gQ	_	.	.
4f#	to	.	.
8[e	me	.	.
2e]	_	.	.
=55	=55	=55	=55
2r	.	1r	.
8f#q	_	.	.
4.g#	ooh,	.	.
8[f#	ba	.	.
=56	=56	=56	=56
8f#]	_	1r	.
8d	by	.	.
8c#	_	.	.
8[B	now,	.	.
4.B]	_	.	.
8[f#	I	.	.
=57	=57	=57	=57
8f#]	_	1r	.
4f#	can	.	.
8[f#	make	.	.
8f#]	_	.	.
8g#	it	.	.
8a#	_	.	.
8[g#	ea	.	.
=58	=58	=58	=58
8g#]	_	1r	.
8e#	si	.	.
8d#	_	.	.
8[c#	ly	.	.
4c#]	_	.	.
4r	.	.	.
=59	=59	=59	=59
1r	.	2c# 2g#	Yeah,
.	.	2B 2f#	yeah,
=60	=60	=60	=60
1r	.	1[A 1[e	yeah
=61	=61	=61	=61
8A	I	2A] 2e]	_
4c#	know	.	.
8[e	that	.	.
8e]	_	2r	.
4a	we	.	.
16aQ	_	.	.
8[b	both	.	.
=62	=62	=62	=62
8b]	_	1[B 1[e	_
16gQ	_	.	.
4f#	a-	.	.
8[e	-gree	.	.
4e]	_	.	.
4r	.	.	.
=63	=63	=63	=63
4g#	best	2B] 2e]	_
8g#	thing	.	.
8f#	to	.	.
8g#	hap-	4B] 4e]	_
8f#	-pen	.	.
8e	to	4r	.
8f#q	_	.	.
8[g#	you	.	.
=64	=64	=64	=64
8g#]	_	1B 1f#	_
4f#	_	.	.
8r	.	.	.
4.r	.	.	.
8c#~	the	.	.
=65	=65	=65	=65
4cc#	best	1c# 1f#	_
8cc#	thing	.	.
8cc#	to	.	.
8a#	hap-	.	.
8g#	-pen	.	.
8f#	to	.	.
8[a#	me,	.	.
=66	=66	=66	=66
*	*	*clefC3	*
8a#]	_	1r	.
4.[g#	_	.	.
4.g#]	_	.	.
8f#	y-	.	.
=67	=67	=67	=67
4.g#	-yeah,	2c# 2g#	Yeah,
8f#	y-	.	.
4.f#	-yeah,	2B 2f#	yeah,
8e	y...	.	.
=68	=68	=68	=68
*B:	*	*B:	*
1r	.	2.A 2.e	yeah!
.	.	4r	.
=69	=69	=69	=69
1r	.	1r	.
=70	=70	=70	=70
1r	.	1r	.
=71	=71	=71	=71
1r	.	1r	.
=72	=72	=72	=72
1r	.	1r	.
=73	=73	=73	=73
1r	.	1r	.
=74	=74	=74	=74
1r	.	8e 8a	Wow
.	.	4.f# 4.b	_
.	.	2r	.
=75	=75	=75	=75
1r	.	1r	.
=76	=76	=76	=76
1r	.	1r	.
=77	=77	=77	=77
1r	.	1r	.
=78	=78	=78	=78
1r	.	8e 8a	Wow
.	.	4.f# 4.b	_
.	.	2r	.
=79	=79	=79	=79
1r	.	1r	.
=80	=80	=80	=80
1r	.	1r	.
=81	=81	=81	=81
1r	.	1r	.
=82	=82	=82	=82
1r	.	8e 8a	Wow
.	.	4.f# 4.b	_
.	.	2r	.
=83	=83	=83	=83
1r	.	1r	.
=84	=84	=84	=84
*	*	*clefC3	*
2r	.	2r	.
4g#	Fee-	4c#	Fee-
4b	-lin'	4e	-lin'
=85	=85	=85	=85
4b	stron-	4e	stron-
4b	-ger	4e	-ger
4b	ev-	4e	ev-
8g#	-'ry-	8c#	-'ry-
8[f#	-day	8[B	-day
=86	=86	=86	=86
1f#_	_	1B_	_
=87	=87	=87	=87
2f#]	_	2B]	_
4f#]	_	4B]	_
4r	.	4r	.
=88	=88	=88	=88
2r	.	2r	.
4f#	Fee-	4B	Fee-
4g#	-lin'	4c#	-lin'
=89	=89	=89	=89
4b	stron-	4e	stron-
4b	-ger	4e	-ger
4b	ev-	4e	ev-
8g#	-'ry-	8c#	-'ry-
8[f#	-day	8[B	-day
=90	=90	=90	=90
1f#_	_	1B_	_
=91	=91	=91	=91
2f#]	_	2B]	_
4f#]	_	4B]	_
4r	.	4r	.
=92	=92	=92	=92
1r	.	2r	.
.	.	4c# 4g#	Fee-
.	.	4e 4b	-lin'
=93	=93	=93	=93
1r	.	4e 4b	stron-
.	.	4e 4b	-ger
.	.	4e 4b	ev-
.	.	8c# 8g#	-'ry-
.	.	8[B 8[f#	-day
=94	=94	=94	=94
1r	.	1B_ 1f#_	_
=95	=95	=95	=95
8e 8b	(vocalizing)	2B] 2f#]	_
8c# 8g#	_	.	.
8A 8e	_	.	.
8B 8f#	_	.	.
8r	.	4B] 4f#]	_
8B 8f#	_	.	.
4[A 4[e	_	4r	.
=96	=96	=96	=96
1A] 1e]	_	2r	.
.	.	4c# 4g#	Fee-
.	.	4e 4b	-lin'
=97	=97	=97	=97
1r	.	4e 4b	stron-
.	.	4e 4b	-ger
.	.	4e 4b	ev-
.	.	8c# 8g#	-'ry-
.	.	8[B 8[f#	-day
=98	=98	=98	=98
1r	.	1B_ 1f#_	_
=99	=99	=99	=99
8e 8b	(vocalizing)	2B] 2f#]	_
8c# 8g#	_	.	.
8A 8e	_	.	.
8B 8f#	_	.	.
8r	.	4B] 4f#]	_
8B 8f#	_	.	.
4[A 4[e	_	4r	.
=100	=100	=100	=100
1A] 1e]	_	2r	.
.	.	4c# 4g#	Fee-
.	.	4e 4b	-lin'
=101	=101	=101	=101
1r	.	4e 4b	stron-
.	.	4e 4b	-ger
.	.	4e 4b	ev-
.	.	8c# 8g#	-'ry-
.	.	8[B 8[f#	-day
=102	=102	=102	=102
1r	.	1B_ 1f#_	_
=103	=103	=103	=103
8e 8b	(vocalizing)	2B] 2f#]	_
8c# 8g#	_	.	.
8A 8e	_	.	.
8B 8f#	_	.	.
8r	.	4B] 4f#]	_
8B 8f#	_	.	.
4[A 4[e	_	4r	.
=104	=104	=104	=104
1A] 1e]	_	2r	.
.	.	4c# 4g#	Fee-
.	.	4e 4b	-lin'
=105	=105	=105	=105
1r	.	4e 4b	stron-
.	.	4e 4b	-ger
.	.	4e 4b	ev-
.	.	8c# 8g#	-'ry-
.	.	8[B 8[f#	-day
=106	=106	=106	=106
1r	.	1B_ 1f#_	_
=107	=107	=107	=107
8e 8b	(vocalizing)	2B] 2f#]	_
8c# 8g#	_	.	.
8A 8e	_	.	.
8B 8f#	_	.	.
8r	.	4B] 4f#]	_
8B 8f#	_	.	.
4[A 4[e	_	4r	.
=108	=108	=108	=108
1A] 1e]	_	2r	.
.	.	4c# 4g#	Fee-
.	.	4e 4b	-lin'
=109	=109	=109	=109
1r	.	4e 4b	stron-
.	.	4e 4b	-ger
.	.	4e 4b	ev-
.	.	8c# 8g#	-'ry-
.	.	8[B 8[f#	-day
=110	=110	=110	=110
1r	.	1B_ 1f#_	_
=111	=111	=111	=111
8e 8b	(vocalizing)	2B] 2f#]	_
8c# 8g#	_	.	.
8A 8e	_	.	.
8B 8f#	_	.	.
8r	.	4B] 4f#]	_
8B 8f#	_	.	.
4[A 4[e	_	4r	.
=112	=112	=112	=112
1A] 1e]	_	2r	.
.	.	4c# 4g#	Fee-
.	.	4e 4b	-lin'
=113	=113	=113	=113
1r	.	4e 4b	stron-
.	.	4e 4b	-ger
.	.	4e 4b	ev-
.	.	8c# 8g#	-'ry-
.	.	8[B 8[f#	-day
=114	=114	=114	=114
1r	.	1B_ 1f#_	_
=115	=115	=115	=115
8e 8b	(vocalizing)	2B] 2f#]	_
8c# 8g#	_	.	.
8A 8e	_	.	.
8B 8f#	_	.	.
8r	.	4B] 4f#]	_
8B 8f#	_	.	.
4[A 4[e	_	4r	.
=116	=116	=116	=116
1A] 1e]	_	2r	.
.	.	4c# 4g#	Fee-
.	.	4e 4b	-lin'
=117	=117	=117	=117
1r	.	4e 4b	stron-
.	.	4e 4b	-ger
.	.	4e 4b	ev-
.	.	8c# 8g#	-'ry-
.	.	8[B 8[f#	-day
=118	=118	=118	=118
1r	.	1B_ 1f#_	_
=119	=119	=119	=119
8e 8b	(vocalizing)	2B] 2f#]	_
8c# 8g#	_	.	.
8A 8e	_	.	.
8B 8f#	_	.	.
8r	.	4B] 4f#]	_
8B 8f#	_	.	.
4[A 4[e	_	4r	.
=120	=120	=120	=120
1A] 1e]	_	2r	.
.	.	4c# 4g#	Fee-
.	.	4e 4b	-lin'
=121	=121	=121	=121
1r	.	4e 4b	stron-
.	.	4e 4b	-ger
.	.	4e 4b	ev-
.	.	8c# 8g#	-'ry-
.	.	8[B 8[f#	-day
=122	=122	=122	=122
1r	.	1B_ 1f#_	_
=123	=123	=123	=123
8e 8b	(vocalizing)	2B] 2f#]	_
8c# 8g#	_	.	.
8A 8e	_	.	.
8B 8f#	_	.	.
8r	.	4B] 4f#]	_
8B 8f#	_	.	.
4[A 4[e	_	4r	.
=124	=124	=124	=124
1A] 1e]	_	2r	.
.	.	4c# 4g#	Fee-
.	.	4e 4b	-lin'
=125	=125	=125	=125
1r	.	4e 4b	stron-
.	.	4e 4b	-ger
.	.	4e 4b	ev-
.	.	8c# 8g#	-'ry-
.	.	8[B 8[f#	-day
=126	=126	=126	=126
1r	.	1B_ 1f#_	_
=127	=127	=127	=127
8e 8b	(vocalizing)	2B] 2f#]	_
8c# 8g#	_	.	.
8A 8e	_	.	.
8B 8f#	_	.	.
8r	.	4B] 4f#]	_
8B 8f#	_	.	.
4A 4e	_	4r	.
=128	=128	=128	=128
1r	.	2r	.
.	.	4c# 4g#	Fee-
.	.	4e 4b	-lin'
=129	=129	=129	=129
1r	.	4e 4b	stron-
.	.	4e 4b	-ger
.	.	4e 4b	ev-
.	.	8c# 8g#	-'ry-
.	.	8[B 8[f#	-day
=130	=130	=130	=130
1r	.	1B_ 1f#_	_
=131	=131	=131	=131
1r	.	2B] 2f#]	_
.	.	4B] 4f#]	_
.	.	4r	.
r;	.	r;	.
r;	.	r;	.
*-	*-	*-	*-
!!!ENC: Nathaniel Condit-Schultz